X:1
T:Just Makin' It Up
T:"Just Makin' It Up" - Blues
T:Improvised by Tom Brier featuring Frederick Hodges Transcribed by mlololoer 
T:https://musescore.com/user/19465036/scores/6307454 Transcribed from: https://www.youtube.com/watch?v=HN5JtCV1PpA 
C:Tom Brier
%%score { ( 1 3 ) | ( 2 4 ) } { 5 | 6 }
L:1/8
Q:1/4=120
M:3/4
K:Eb
V:1 treble nm="Brier"
V:3 treble 
V:2 bass 
V:4 bass 
V:5 treble nm="Hodges" snm="Hodges"
V:6 bass 
V:1
"^ ≈ 120" z6[Q:1/4=110][Q:1/4=80][Q:1/4=70][Q:1/4=60][Q:1/4=50][Q:1/4=40] | %1
[M:15/8][Q:1/4=80]!mp! (F[Q:1/4=110]G[Q:1/4=120] !trill(!TF4 E=D_DG,[Q:1/4=100]CB,{^F,}G,[K:bass]E,/D,/_D,/B,,/ | %2
[M:10/4][Q:1/4=160]"_Brier" C,4)[K:treble][Q:1/4=140] !arpeggio![CE_GB]4[Q:1/4=140] [CEGA]8- [CEGA]2 z F[Q:1/4=100][Q:1/4=130][Q:1/4=120][Q:1/4=100] | %3
[M:4/4]"^Swing 8ths."[Q:1/4=85]"^ ≈ 85"[Q:1/4=85] GBGB [FG]B[FG]B | %4
"_Brier" [B,=EG] C2 [B,C]-[Q:1/4=60] [B,C]4[Q:1/4=90] |[Q:1/4=83] z2!>(! [=A,E^F]G [_A,DF]GEC!>)! | %6
 [G,B,E]_C (3B,=CB,- B,2 z ^f ||!p![Q:1/4=80]"^Slow and weary""^(Brier)" (3ged _d2- d=AB=B | %8
 ce A2- A!>!EF^F |!<(! G B2 c B2 [FA]^F | G E2 [_DGBe]- [DGBe]3 !>![=D=B]!<)! | %11
[Q:1/4=81]!>(! (3[Ec][CA]G [C_G]2- [CG]=B,CF!>)! | E C2 F E C2 E | %13
[Q:1/4=82]!<(! [=G,B,] [EG]2 [EG]!<)!!>(! [D^F][DF][_D=F][B,C=E]-!>)! | %14
 [B,CE] [C=EGc]2 B,- [EG]EDC | (3^FGC- C2- CGEC |[Q:1/4=83] _GE_CE D^F=GE- | %17
!<(! E [EG]2 E A2 ^FG-!<)! |[Q:1/4=84] G !>![^CGB]2 !>![DAc]- [DAc] [D^FB]2 [_DGBe]- || %19
 [DGBe]4!<(! [_DGc][DGB][DG][D_G]!<)! |[Q:1/4=85]!>(! FECF E C2 E-!>)! | %21
[Q:1/4=87] E!mf!E!<(!Gc BGED!<)! | _DG,C_C!>(! B,- [B,DG]2 E!>)! | %23
!mp![Q:1/4=88] (3_GFE =B,C- C [_G,CE]2 C |!<(! _GF E2{C^C} D!>!B,!>!__B,!>!A,!<)! | %25
 z [EG][E^F][EG]!>(! [B,B] [=B,=B]2 [C=EG_Bc]-!>)! |!mp! [CEGBc]2 !>![=EG][EA]- [EA] [EG]3 | %27
[Q:1/4=89] z [EG]^FG =F E3 | GFE_C B,^FGE- | [G,B,E]!>![B,EG]- (3[B,EG]B,[EG] [E^F]C[D=F][G,B,E]- | %30
!<(! [G,B,E]!>![B,B][B,B][B,B]- [B,B] [Adb]2 g-!<)! |!mf! [Begb]3 [_dgbe']- [dgbe']3 [ee'] | %32
{=b} c'aef [ce_g]ec_c | [GB]3 [Ac] [GB]/D/G/B/ [FA]/D/F/A/ | %34
 [B,EG][D_G][_DF][DE]-!>(! [DE] [D=GBe]3!>)! | [E_Gc] [ce]2 [Gcea]- [Gcea]4 | %36
!<(!{ab=b} c'e'ef [=A_g][Ae]c[E-A]!<)! | [EGB] [Beb]2 [EB]!>(! [FA]B[FA][=EG]-!>)! | %38
 [EG][=EA][EG][EG]- [EG]2 (3z !>!A,!>!=A,- | (3[EG]_GF EC =A, [E=G]3 | (3G_GF E_C B,-!>!^F=GB,- | %41
 FEB,=B, CEB,C | E2 [_DGBe]2 [DGB]2 [DG=B][E_Gc]- | [EGc]!>!A=G_G- G4 | %44
 [e_gc']e (3gc'e' [dd'] [cgc']2 [Be=gb]- |!<(! [Begb] [Beg]2 b [Ada] [Adf]2 [Aa] | %46
 [Geg]ed_d-!<)!!>(! deB=B!>)! | cA=G_G- G4 | !arpeggio![E_Gce] [EGc]2 e [EA]EF^F | %49
!>(! GBcG BcG[AB]-!>)! | [DAB] [CDA]2 [B,DG]- [B,DG][__B,D_G][A,DF]^F |!p![Q:1/4=90] [G,G]8 | %52
 (3_GFE C6 |!mp!!<(! G [B,E]2 A,- [A,DFA] [=A,E^F=A]2 [B,_DGB]-!<)! | %54
 [B,DGB]!>![^F^f]!>![G_dg]!>![=Fd=f]- [Fdf] [Ede]2 =B |[Q:1/4=91] cA _G6 | z ABA _G!>!EF^F | %57
 [B,EG] !>![B,B]3 !>![=B,=B]3 !>![_B,=EGc]- | %58
 [B,EGc] !>![B,=EG]2 !>![B,EG] !>![=B,FA]!>![B,FA] !>![_B,EG]2 | (3G_GF EC- C E3 | %60
 G_G (3FE_C!<(! B,^F=GE- | [G,CE] [G,CEG]2!<)!!>(! [B,EGB]- [B,EGB] [EGBe]2 [E=Ace]-!>)! | %62
[Q:1/4=90] [EAce] [E=Ac]2 [E_Ge]- [EGe] [EGc]3 | (3BcG BB- B4 | [FA]4 GF^FG | %65
[Q:1/4=83]"^rit."!>(! FEB,=B,"^Straight"[Q:1/4=75] CE_GF!>)! | %66
[Q:1/4=70]!pp! [G,B,E]2[Q:1/4=65] B,[Q:1/4=55]C !fermata![E,G,B,_D]4 |] %67
V:2
 z6 |[M:15/8]!ped! !arpeggio![E,,B,,]8 x x x4 x!ped-up! |[M:10/4]!ped! z8 x8 x4!ped-up! | %3
[M:4/4]!ped! [E,B,E]4!ped-up!!ped! [_D,A,_D]4!ped-up! |!ped! [C,G,]8!ped-up! | %5
!ped! z2 !arpeggio![F,,E,]2!ped-up!!ped! B,,4!ped-up! | z A,, (3G,,A,,G,, B,,2 B,,,E,,- || %7
!ped! [E,,B,,G,]2 [B,_DEG]2!ped-up!!8vb(!!ped! E,,,2!8vb)! [B,DEG]A,,-!ped-up! | %8
!ped! [A,,E,_G,]2 [E,G,A,C]2!ped-up!!8vb(!!ped! A,,,2!8vb)! [E,G,A,C]E,,-!ped-up! | %9
!ped! [E,,B,,G,]2 [E,G,B,]2!ped-up!!ped! [F,,A,]2 [F,A,B,D]2!ped-up! | %10
!ped! [G,,E,B,]2 [E,,E,]2!ped-up!!ped! [F,,F,]2 [G,,G,]2!ped-up! | %11
!ped! [A,,E,A,]2 [E,_G,A,]2!ped-up!!ped! [E,,E,]2 [C,E,A,]2!ped-up! | %12
!ped! [A,,,A,,]2- [A,,,A,,][A,,,A,,]!ped-up!!ped! [=A,,,=A,,]2- [A,,,A,,][A,,,A,,]!ped-up! | %13
!ped! [B,,,B,,] [E,,E,]2 [E,,E,]!ped-up!!ped! [D,,D,][D,,D,]!ped-up!!ped! [_D,,_D,]2!ped-up! | %14
!ped! [C,,C,]2 [=E,G,]2!ped-up!!ped! [C,,C,]2 [C,E,G,]2!ped-up! | %15
!ped! [F,,C,E,]2 [C,E,F,]2!ped-up!!8vb(!!ped! F,,,2!8vb)! [C,E,F,]2!ped-up! | %16
!ped! !arpeggio![_C,,_G,,E,]4!ped-up!!ped! B,,,B,,, B,,2!ped-up! | %17
!ped! [E,,E,]2 [G,,E,G,]2!ped-up!!ped! [A,,E,A,]2 [=A,,E,^F,]2!ped-up! | %18
!ped! [B,,E,G,]2!ped-up!!ped! [B,,^C,=E,G,]2!ped-up!!ped! [B,,D,F,A,]2 [B,,,B,,]2!ped-up! || %19
!8vb(!!ped! E,,,2!8vb)! [E,G,B,]2 E,,2 [E,G,B,]2!ped-up! | %20
!ped! [A,,E,]2 [A,,E,]2!ped-up!!ped! [=A,,E,^F,] [A,,E,F,]2 [B,,E,G,]-!ped-up! | %21
!ped! [B,,E,G,]E,G,C!ped-up! B,G,E,F, | %22
!ped! G,2!mf! [E,,B,,E,]2!ped-up!!ped! [F,,F,]2 [G,,G,]A,,-!ped-up! | %23
!ped! [A,,E,_G,]2 [E,G,]2!ped-up!!8vb(!!ped! A,,,2!8vb)! A,,E,,-!ped-up! | %24
!ped! [E,,C,_G,]2 [E,G,A,]2!ped-up!!ped! B,,,2- [B,,,B,,]2!ped-up! | %25
!ped! E,,2- [E,,E,]2!ped-up!!ped! [D,,D,]2 [_D,,_D,]2!ped-up! | %26
!ped! [C,,G,,=E,]2 [C,E,G,]2!ped-up!!8vb(!!ped! C,,,2!8vb)! [C,E,G,]2!ped-up! | %27
!ped! [F,,C,E,]6 (3F,,G,,A,,-!ped-up! | %28
!ped! A,,2- [A,,,A,,]2!ped-up!!ped! B,,,2- [B,,,B,,]2!ped-up! | %29
!ped! [E,,E,]2 [B,,,B,,]2!ped-up!!ped! [C,,C,]2!ped-up!!ped! [D,,D,]2!ped-up! | %30
!ped! [E,,E,]2 [=E,,=E,]2!ped-up!!ped! [F,,F,]2 [^F,,^F,]G,,-!ped-up! | %31
!ped! [G,,E,B,]2 [G,B,E]2!8vb(! E,,,2!8vb)! [E,G,B,_D]2!ped-up! | %32
!ped! [A,,,A,,]2 [E,A,C]2!ped-up!!ped! [=A,,,=A,,]2 [_G,=A,CE]2!ped-up! | %33
!ped! [B,,,B,,]2 [G,B,E]2!ped-up!!ped! [B,,,B,,]2 [D,F,B,]2!ped-up! | %34
!ped! [E,,B,,E,]2 [_D,E,G,]2!ped-up!!8vb(!!ped! E,,,2!8vb)! [E,G,B,]2!ped-up! | %35
!ped! [A,,,A,,]2 [E,_G,A,C]2!ped-up!!8vb(!!ped! E,,,2!8vb)! [E,G,A,C]2!ped-up! | %36
!8vb(!!ped! A,,,2!8vb)! [E,_G,A,C]2!ped-up!!ped!{=A,,,-} [A,,,=A,,]2 [G,=A,CE]2!ped-up! | %37
!ped! [B,,,B,,]2 [E,G,B,]_D,,-!ped-up!!ped! [D,,_D,]2 [D,F,A,B,]2!ped-up! | %38
!ped! [C,,G,,=E,]2 [C,E,G,]2!ped-up!!8vb(!!ped! C,,,2!8vb)! [C,E,G,]2!ped-up! | %39
!ped! [F,,C,E,]6 F,,G,,!ped-up! |!ped! A,,4!ped-up!!ped! B,,2- [B,,,B,,]2!ped-up! | %41
!ped! [E,,B,,E,]4!ped-up!!ped! [A,,E,_G,]4!ped-up! | %42
!ped! [E,,B,,E,]2 [E,,E,]2!ped-up!!ped! [F,,F,]2!ped-up!!ped! [G,,G,]A,,- | %43
 [A,,_G,]2 [E,G,A,C]2!ped-up!!8vb(!!ped! A,,,2!8vb)! [E,G,A,C]E,,-!ped-up! | %44
!ped! [E,,C,_G,]2 [E,G,A,C]2!ped-up!!ped! [A,,G,]2 [E,G,A,C]E,,-!ped-up! | %45
!ped! [E,,B,,G,]3 F,,-!ped-up!!ped! [F,,D,A,]3 G,,-!ped-up! | %46
!ped! [G,,E,B,]2 [E,G,B,_D]2!ped-up!!ped! [G,B,DE]2 [E,,E,]A,,-!ped-up! | %47
!ped! [A,,E,A,]2 [E,_G,A,C]2!ped-up!!8vb(!!ped! A,,,2!8vb)! [E,G,A,C]2!ped-up! | %48
!ped! [E,,_G,]2 [E,G,A,]2!ped-up!!ped! C,2- [C,E,G,A,]2!ped-up! | %49
!ped! [E,,E,]4!ped-up!!ped! [=E,,^C,=E,]3!ped-up!!ped! [F,,D,F,]- | %50
 [F,,D,F,]!ped-up!!ped! [B,,,B,,]2!ped-up!!ped! [C,,C,]- [C,,C,][^C,,^C,]!ped-up!!ped! [D,,D,]2!ped-up! | %51
!ped! (E,2!mp! B,,E,!ped-up!!ped! _D,B,, (3^F,,G,,B,,)!ped-up! | %52
!ped! A,,2!8vb(! (A,,,!>!C,,!ped-up!!ped! E,,A,,!ped-up!!ped! (3F,,E,,C,,!8vb)!!ped-up! | %53
!ped! E,,2) [E,,E,]2!ped-up!!ped! [F,,F,]2!ped-up!!ped! [^F,,^F,]2!ped-up! | %54
!ped! [G,,E,G,]2 [E,G,B,_D]2!ped-up!!8vb(!!ped! E,,,2!8vb)! [E,G,B,D]A,,,-!ped-up! | %55
!ped! [A,,,A,,]2 ([E,_G,A,C]!mf!G, E,C,!ped-up!!ped! (3A,,B,,=B,,!ped-up! | %56
!ped! C,2)!mf! [C,E,A,]A,,-!ped-up!!ped! [A,,E,_G,]3 E,,-!ped-up! | %57
!ped! [E,,B,,G,]4!ped-up!!ped! [D,,=B,,F,]3 !>![C,,G,,=E,]-!ped-up! | %58
!ped! [C,,G,,E,] !>![C,,C,]2 !>![C,,C,]!ped-up!!ped! !>![_D,,_D,]!>![D,,D,]!ped-up!!ped!!>![C,,C,]F,,-!ped-up! | %59
!ped! [F,,E,]2 [C,E,F,]2!ped-up!!8vb(!!ped! F,,,2!8vb)! [C,E,F,]2!ped-up! | %60
!ped! [A,,,A,,]4!ped-up!!ped! [B,,,B,,]4!ped-up! | %61
!ped! [C,,C,]4!ped-up!!ped! [B,,,B,,]2 [E,G,]2!ped-up! | %62
!ped! [=A,,,=A,,]2 [E,=A,C]2!ped-up!!ped! [_A,,,_A,,]2 [E,_G,C]2!ped-up! | %63
!ped! [G,,,G,,]3 [=E,,^C,G,]-!ped-up!!ped! [E,,C,G,]3 F,,-!ped-up! | %64
!ped! [F,,C,A,]4!ped-up!!ped! [B,,F,A,]4!ped-up! | %65
!ped! [E,,B,,E,]4!ped!!ped-up!!ped! [A,,E,]2!ped-up!!ped! [B,,F,]2!ped-up! | %66
!ped! [E,,B,,E,]2 B,,,2!ped-up!!8vb(!!ped! !fermata!E,,,4!8vb)!!ped-up! |] %67
V:3
 x6 |[M:15/8] [G,_D]4 x9[K:bass] x2 |[M:10/4] x4[K:treble] x16 |[M:4/4] x8 | x8 | x8 | x8 || x8 | %8
 _G4 x4 | E [EG]3 D2 x2 | x8 | x8 | _G, G,2 G, ^F, F,2 F, | x8 | x4 B, B,3 | %15
 (3:2:2[=A,E]2 A,- A,2- A, A,3 | __B,2 B,2 A, [A,D]2 [G,_B,] | [G,B,] B,3 C2 [CE][B,E]- | %18
 [B,E] x7 || x8 | C2 x6 | x8 | x8 | C2 x6 | x8 | !>!G,4 x4 | x2 B,2- B,3 x |{C_CB,} =A,4 A, A,3 | %28
 _C3 x2 D2 [G,B,]- | x8 | x8 | x8 | x8 | x8 | x8 | x8 | x8 | x8 | x B,2 B,- B,2 x2 | A,4 =A,2 x2 | %40
 [_CE]2 x2 B, [B,D]2 x | [G,B,]2 G,2 _G,2 G,2 | [G,B,]2 x6 | x C2 C- C4 | x8 | x8 | x G2 G- G G3 | %47
 [E_G]ECC- C4 | x8 | E E3 ^C3 D- | x8 | z [_DE]3- [DE]4 | [_G,C]2 [G,C]6 | x8 | x8 | E8 | %56
 x [CE] [CE]2 [CE] C3 | x z ^FG z FG x | x8 | =A,4- A, A,3 | [_CE]4 x B,[A,D][G,=C]- | x8 | x8 | %63
 [B,E]2 B,[B,=E]- [B,E] [B,EG]3 | !fermata!C!>!C!>!^CD- D=C^CD | _D x3 _G,2 [_B,=D]2 | x8 |] %67
V:4
 x6 |[M:15/8] x15 |[M:10/4] x20 |[M:4/4] x8 | x8 | x8 | x8 || x4!8vb(! x2!8vb)! x2 | %8
 x4!8vb(! x2!8vb)! x2 | x8 | x8 | x8 | x8 | x8 | x8 | x4!8vb(! x2!8vb)! x2 | x8 | x8 | x8 || %19
!8vb(! x2!8vb)! x6 | x8 | x8 | x8 | x4!8vb(! x2!8vb)! x2 | x8 | x8 | x4!8vb(! x2!8vb)! x2 | x8 | %28
 x8 | x8 | x8 | x4!8vb(! x2!8vb)! x2 | x8 | x8 | x4!8vb(! x2!8vb)! x2 | x4!8vb(! x2!8vb)! x2 | %36
!8vb(! x2!8vb)! x6 | x8 | x4!8vb(! x2!8vb)! x2 | x8 | x8 | x8 | x8 | x4!8vb(! x2!8vb)! x2 | x8 | %45
 x8 | x8 | x4!8vb(! x2!8vb)! x2 | x8 | x8 | x8 | E,,8 | x2!8vb(! x6!8vb)! | x8 | %54
 x4!8vb(! x2!8vb)! x2 | x8 | x8 | x8 | x8 | x4!8vb(! x2!8vb)! x2 | x8 | x8 | x8 | x8 | x8 | x8 | %66
 x4!8vb(! x4!8vb)! |] %67
V:5
!mf!!>(!!8va(! g/a/_c'/d'/ .g'/.g'/.g'/.g'/!>)! g'2!8va)! |[M:15/8] z8 x4 x2 x | %2
[M:10/4] z8 z4!<(! .[_G,CE].[A,CF]!<)!!>(!.[G,CE].[A,CF] !fermata![G,CE]4!>)! |[M:4/4] z8 | %4
 z4!<(! z2!mf! (3.[B,DG]!>(!.G,!<)!.[B,D]!>)! | z8 | z!mp! [_CE] z2[K:bass]{D,} .E, z z2 || z8 | %8
 z8 | z8 | z8 | z8 | z8 | z8 | z8 | z8 | z8 | z8 | z8 || z8 | z8 | z8 | z8 | z8 | z8 | z8 | z8 | %27
 z8 | z8 | z8 | z8 | z8 | z8 | z8 | z8 | z8 | z8 | z8 | z8 | z8 | z8 | z8 | z8 | z8 | z8 | z8 | %46
 z8 | z8 | z8 | z8 | z8 | z8 | z8 | z8 | z8 | z8 | z8 | z8 | z8 | z8 | z8 | z8 | z8 | z8 | z8 | %65
 z8 | z8 |] %67
V:6
 z6 |[M:15/8] z12 z (3:2:2E,,- [E,,B,,_D,]2- |[M:10/4] [E,,B,,D,]8 [A,,E,_G,]8- [A,,E,G,]4 | %3
[M:4/4] z8 | z !>![F,,C,]3 (3C,,G,,=E,- E,2 |!mp! F,,4 B,,,2 B,,,2 | z A,, z2 z4 || z8 | z8 | z8 | %10
 z8 | z8 | z8 | z8 | z8 | z8 | z8 | z8 | z8 || z8 | z8 | z8 | z8 | z8 | z8 | z8 | z8 | z8 | z8 | %29
 z8 | z8 | z8 | z8 | z8 | z8 | z8 | z8 | z8 | z8 | z8 | z8 | z8 | z8 | z8 | z8 | z8 | z8 | z8 | %48
 z8 | z8 | z8 | z8 | z8 | z8 | z8 | z8 | z8 | z8 | z8 | z8 | z8 | z8 | z8 | z8 | z8 | z8 | z8 |] %67

